!!!COM: Johannes Brahms
!!!CNT: Deutscher
!!!TXO: Deutsche
!!!OTL: Das Lied vom Herrn von Falkenstein
!!!OPS: Op. 43
!!!ONM: No. 4
!!!LYR: Aus Uhlands Volksliedern
!!!ONB: Original key: Originaltonart
!!!ENC: Ayako Kataoka        
!!!EED: Leigh VanHandel
!!!YOR: C.F. Peters, Brahms Lieder fu2r eine Singstimme mit Klavierbegleitung, Band III, ausgabe fu2r tiefere Stimme
!!!ODT: 1868/
!!NB: Vocal melody and text only encoded.
**kern	**silbe
*clefG2	*
*k[b-e-a-]	*
*M4/4	*
*MM[allegro]	*
=1	=1
2r	.
4r	.
{4g	{Es
=2	=2
4c	reit
4d	der
4e-	Herr
4g	von
=3	=3
4cc	Fal-
4g	-ken-
4c	-stein
4d	wohl
=4	=4
4e-	u2-
8f	-ber
8f	ein
4g	brei-
4ee-	-te
=5	=5
(4e-	Hei-
4f)	|
4g}	-de.}
{4dd	{Was
=6	=6
2.g	sieht
4dd	er
=7	=7
4g	an
4dd	dem
4g	We-
4ee-	-ge
=8	=8
2.cc}	stehn?}
{4ff	{Ein
=9	=9
4ee-	Ma2-
8dd-	-del
8dd-	mit
4cc	wei-
(8a-	-ssem
8b-)	|
=10	=10
2cc	Klei-
4g}	-de,}
{4g	{ja
=11	=11
(2cc	Klei-
2g)	|
=12	=12
2c}	-de.}
2r	.
=18	=18
2r	.
4r	.
{4g	{Gott
=19	=19
4c	gru2-
8d	-sse
8d	Euch
4e-	Herrn
4g	von
=20	=20
4cc	Fal-
4g	-ken-
4c}	-stein!}
{4d	{seid
=21	=21
4e-	Ihr
4f	des
4g	Land
4ee-	sein
=22	=22
(4e-	Her
4f)	|
4g}	-re,}
{8dd	{ei
8dd	so
=23	=23
2.g	gebt
4dd	mir
=24	=24
8g	wie-
8g	-der
8dd	den
8dd	Ge-
4g	-fang-
4ee-	-nen
=25	=25
2.cc}	mein}
{4ff	{um
=26	=26
4ee-	al-
8dd-	-ler
8dd-	Jung
4cc	frau-
(8a-	-en
8b-)	|
=27	=27
2cc	Eh-
4g}	-re,}
{4g	{ja
=28	=28
(2cc	Eh-
2g)	|
=29	=29
2c}	-re!"}
2r	.
=35	=35
2r	.
4r	.
{8g	{"Steht
8g	zu
=36	=36
4cc	Fal-
4g	-ken-
4cc	-stein
4g	ein
=39	=39
4cc	tie-
4g	-fer
4e-	Turm
4b-	wohl
=40	=40
4ee-	zwi-
8b-	-schen
8b-	zwei
4ee-	ho-
4b-	-hen
=41	=41
(4ee-	Mau-
4b-)	|
4g}	-ren,}
{4a-	{so
=42	=42
2.g	will
4a-	ich
=43	=43
4g	an
4a-	die
4g	Mau-
4ee-	-ren
=44	=44
2.cc}	stehn,}
{4dd-	{und
=45	=45
4cc	will
4b-	ihm
4ee-	hel-
(8c	-fen
8b-)	|
=46	=46
2a-	trau-
4g}	-ren,}
{4g	{ja
=47	=47
(2a-	trau-
2g)	|
=48	=48
2g}	-ren.}
2r	.
=56	=56
*k[b-e-a-d-]	*
4r	.
{4cc	{Sie
4cc	ging
4cc	den
=57	=57
(8cc	Turm
8b-)	|
4b-	wohl
4a-	um
4a-	und
=58	=58
(8dd-	wie-
8cc)	|
4cc	-der
4b-}	um:}
{4dd-	{"Feins-
=59	=59
(8dd-	lieb
8cc)	|
4cc	bist
4b-	du
4b-	dar-
=60	=60
(4ee-	-in-
4dd-)	|
4cc}	-nen?}
{4cc	{Und
=61	=61
(8cc	we-
8ddn)	-nn
(4dd	ich
4dd	dich
4dd)	nicht
=62	=62
(8ddn	se-
8ee-)	|
4ee-	-hen
4ee-}	kann,}
{4ee-	{so
=63	=63
(8ee-	ko-
8ff)	-mm
8ff	ich
8ff	von
4ff	mei-
4ff	-nen
=64	=64
(2ff	Sin-
2gg)	|
=65	=65
2ee-}	-nen.}
2r	.
=66	=66
!!skipping 6th stanza
!!begin 7th stanza
2r	.
4r	.
{4g	{Ei
=67	=67
*k[b-e-a-]	*
4cc	do2rft
4g	ich
4cc	schar-
4g	-fe
=68	=68
4cc	Mes-
4g	-ser
4e-	tragn,
4b-	wie
=69	=69
4ee-	un-
4b-	-sers
4ee-	Herrn
4b-	sein
=70	=70
(4ee-	Kne-
4b-)	-ch
4g}	-te,}
{4a-	{so
=71	=71
2.a-	ta2t
8a-	ich
8a-	mit
=72	=72
4g	Dem
4cc	von
4bn	Fal-
4ee-	-ken-
=73	=73
2.cc	-stein
4dd-	um
=74	=74
4cc	mei-
8b-	-nen
8b-	Herz
4ee-	lieb-
(8cc	-st-
8b-)	-en
=75	=75
2a-	fech-
4g}	-ten,}
{4g	{ja
=76	=76
(2a-	fech-
2g)	|
=77	=77
2g}	-ten!}
2r	.
=83	=83
2.r	.
{4g	{"Mit
=84	=84
4c	ei-
4d	-ner
4e-	Jung-
4g	-frau
=85	=85
4cc	fecht
4g	ich
4c}	nicht,}
{4d	{das
=86	=86
4e-	wa2r
4f	mir
4g	ei-
4ee-	-ne
=87	=87
(4e-	Schan-
4f)	|
4g}	-de!}
{4dd	{Ich
=88	=88
2.g	will
4dd	dir
=89	=89
4g	dei-
8dd	-nen
8dd	Ge-
4g	-fang-
4ee-	-nen
=90	=90
2.cc}	gebn,}
{4ff	{zieh
=91	=91
4ee-	mit
4dd-	ihm
4cc	aus
(8a-	de-
8b-)	-m
=92	=92
2cc	Lan-
4g}	-de,}
{4g	{ja
=93	=93
(2cc	Lan-
2g)	|
=94	=94
2c}	-de."}
2r	.
=100	=100
2r	.
4r	.
{4g	{"Wohl
=101	=101
4cc	aus
4g	dem
4cc	Land
4g	da
=102	=102
4cc	zieh
4g	ich
4e-	nicht,
4b-	hab
=103	=103
4ee-	nie-
4b-	-mand
4ee-	was
4b-	ge-
=104	=104
(4ee	-stoh-
4b-)	|
4g}	-len;}
{4a-	{und
=105	=105
2.g	wenn
4a-	ich
=106	=106
4g	was
4cc	hab
4bn	lie-
4ee-	-gen
=101	=107
2.cc}	lahn,}
{4ff	{so
=108	=108
4ee-	darf
4dd-	ichs
4cc	wie-
(8a-	der-
8b-)	|
=109	=109
2cc	ho-
4g}	-len,}
{4g	{ja
=110	=110
(2cc	ho-
2g)	|
=111	=111
2c}	-len."}
4r	.
*-	*-
